!!!!SEGMENT: pl-kk--kk-i-15--016_anonim--resurrexit-christus.krn
!!!cenid: 16xx:1133
!!!COM: Anonim
!!!COM-rismID: pe30004985
!!!CDT:
!!!CNT:
!!!OTL: Resurrexit Christus
!!!PDT:
!!!AGN: Sacred
!!!SMS-siglum: PL-Kk
!!!SMS-shelfmark: Kk.I.15
!!!SMS-shelfwork: 016 W
!!!SMS-variant:
!!!SMS-altvar:
!!!NIFC-islandoraID: pl-kk:2631
!!!URL-pdf-islandora: https://repozytorium.nifc.pl/islandora/object/pl-kk%3A2631/datastream/PDF/view
!!!URL-scan: https://polish.musicsources.pl/pl/lokalizacje/galeria/rekopisy/5777 @EN{Scan on Polish Music Sources Website} @PL{Skany w portalu Dziedzictwo Muzyki Polskiej w otwartym dostępie}
!!!ONB-nifc: UWAGA: C (skan 0010-0011), A (skan 0028), T (skan 0045), B (skan 0063). Następny motet: Filiae Jerusalem
!!!AIN: 1 alto 1 empty 1 tenor 1 vox
!!!key:
**kern	**text	**kern	**text	**kern	**text	**kern	**text
*part4	*part4	*part3	*part3	*part2	*part2	*part1	*part1
*staff4	*staff4	*staff3	*staff3	*staff2	*staff2	*staff1	*staff1
*Iempty	*	*Itenor	*	*Ialto	*	*Ivox	*
*I"Baſso	*	*I"Tenore.	*	*I"Alto	*	*I"Canto.	*
*I'B	*	*I'T	*	*I'A	*	*I'S	*
*clefF3	*	*clefC4	*	*clefC3	*	*clefC2	*
*k[b-]	*	*k[b-]	*	*k[b-]	*	*k[b-]	*
*g:	*	*g:	*	*g:	*	*g:	*
*M2/1	*	*M2/1	*	*M2/1	*	*M2/1	*
*met(c|)	*	*met(c|)	*	*met(c|)	*	*met(c|)	*
*MM270	*	*MM270	*	*MM270	*	*MM270	*
=1	=1	=1	=1	=1	=1	=1	=1
*all\right	*	*all\right	*	*all\right	*	*all\right	*
!LO:TX:t=P:bemole:problem=BB-, B-	!	!	!	!LO:TX:t=P:problem=kreska pseudotaktowa	!	!LO:TX:t=P:bemole:problem=B-, b- (jeden nad drugim)	!
00r	.	2.G/	Re-	00r	.	0r	.
.	.	4G/	sur-	.	.	.	.
.	.	2d\	-re-	.	.	.	.
!	!	!LO:TX:t=P:problem=kreska pseudotaktowa	!	!	!	!	!
.	.	2d\	-xit	.	.	.	.
=2-	=2-	=2-	=2-	=2-	=2-	=2-	=2-
.	.	2f\	Ch(ri-	.	.	2.d/	Re-
.	.	2f\	-st)us	.	.	.	.
!	!	!	!	!	!	!LO:TX:t=P:problem=kreska pseudotaktowa	!
.	.	.	.	.	.	4d/	-sur-
.	.	2.e\	D(o-	.	.	2g\	-re-
!	!	!	!	!	!	!LO:TX:t=P:problem=kreska pseudotaktowa	!
.	.	.	.	.	.	2g\	-xit
.	.	4e\	-mi)-	.	.	.	.
=3-	=3-	=3-	=3-	=3-	=3-	=3-	=3-
!LO:TX:t=P:problem=kreska pseudotaktowa	!	!LO:TX:t=P:problem=kreska pseudotaktowa	!	!	!	!	!
0r	.	1d\	-nus	2.G/	Re-	2b-\	Chr(i-
.	.	.	.	.	.	2b-\	-st)us
.	.	.	.	4G/	-sur-	.	.
.	.	2r	.	2d\	-re-	2.a\	D(o-
!	!	!	!	!LO:TX:t=P:problem=kreska pseudotaktowa	!	!	!
.	.	2f\	de	2d\	-xit	.	.
!	!	!	!	!	!	!LO:TX:t=P:problem=kreska pseudotaktowa	!
.	.	.	.	.	.	4g\	-mi)-
=4-	=4-	=4-	=4-	=4-	=4-	=4-	=4-
!	!	!	!	!	!	!LO:TX:t=P:problem=kreska pseudotaktowa	!
2.D/	Re-	2.f\	Se-	2f\	Chr(i-	1a\	-nus
.	.	.	.	2f\	-st)us	.	.
!	!	!LO:TX:t=P:problem=kreska pseudotaktowa	!	!	!	!	!
4D/	-sur-	4e\	.	.	.	.	.
!	!	!	!	!LO:TX:t=P:problem=kreska pseudotaktowa	!	!	!
2G\	-re-	4d\	.	1g\	do-	2r	.
.	.	4c\	.	.	.	.	.
!LO:TX:t=P:problem=kreska pseudotaktowa	!	!	!	!	!	!LO:TX:t=P:problem=kreska pseudotaktowa	!
2G\	-xit	2.B-\	.	.	.	2d/	de
=5-	=5-	=5-	=5-	=5-	=5-	=5-	=5-
2B-\	Chr(i-	.	.	2f\	.	4d/	Se-
.	.	4A/	.	.	.	4e/	.
2B-\	-st)us	1d\	.	4e\	.	4f\	.
!	!	!	!	!LO:TX:t=P:problem=kreska pseudotaktowa	!	!LO:TX:t=P:problem=kreska pseudotaktowa	!
.	.	.	.	4d\	.	4g\	.
2.A\	D(o-	.	.	1e\	-mi-	1a\	.
!	!	!LO:TX:t=P:problem=kreska pseudotaktowa	!	!	!	!	!
.	.	2c\	-pul-	.	.	.	.
!LO:TX:t=P:problem=kreska pseudotaktowa	!	!	!	!	!	!	!
4A\	-mi)-	.	.	.	.	.	.
=6-	=6-	=6-	=6-	=6-	=6-	=6-	=6-
*	*	*custos:B	*	*	*	*	*
!	!	!	!	!LO:TX:t=P:problem=kreska pseudotaktowa	!	!	!
2D/	-nus	2d\	-chro	1d\	-nus	2f\	-pul-
!	!	!LO:LB:g=original	!	!	!	!LO:TX:t=P:problem=kreska pseudotaktowa	!
2G\	de	2B-\	qui	.	.	2d/	-chro
*	*	*	*	*	*	*custos:d	*
2F/	Se-	2A/	pe-	2r	.	2d/	qui
!LO:TX:t=P:problem=kreska pseudotaktowa	!	!LO:TX:t=P:problem=kreska pseudotaktowa	!	!	!	!LO:TX:t=P:problem=kreska pseudotaktowa	!
!	!	!	!	!	!	!LO:LB:g=original	!
2G\	-pul-	2G/	-pen-	2B-/	qui	2d/	pe-
=7-	=7-	=7-	=7-	=7-	=7-	=7-	=7-
2D/	-chro	2.d\	-dit	2A/	pe-	2f\	-pen-
!	!	!	!	!LO:TX:t=P:problem=kreska pseudotaktowa	!	!	!
1G\	de	.	.	2G/	-pen-	2.B-/	-dit
.	.	4c\	.	.	.	.	.
.	.	2B-\	.	2.d\	-dit	.	.
.	.	.	.	.	.	4c/	.
2D/	Se-	2.A/	.	.	.	1d/	.
!	!	!	!	!LO:TX:t=P:problem=kreska pseudotaktowa	!	!	!
.	.	.	.	4c/	.	.	.
=8-	=8-	=8-	=8-	=8-	=8-	=8-	=8-
1E-X/	-pul-	.	.	2B-/	in	.	.
.	.	4G/	in	.	.	.	.
!	!	!	!	!	!	!LO:TX:t=P:problem=kreska pseudotaktowa	!
.	.	1G/	lig-	4A/	.	2c/	.
*	*	*	*	*custos:A	*	*	*
.	.	.	.	4G/	.	.	.
*custos:C	*	*	*	*	*	*	*
!LO:TX:t=P:problem=kreska pseudotaktowa	!	!	!	!LO:LB:g=original	!	!	!
1D/	-chro	.	.	1A/	Lig-	1.d/	in
.	.	2F/	.	.	.	.	.
=9-	=9-	=9-	=9-	=9-	=9-	=9-	=9-
!LO:LB:g=original	!	!LO:TX:t=P:problem=kreska pseudotaktowa	!	!LO:TX:t=P:problem=kreska pseudotaktowa	!	!	!
1r	.	0G/	-no	0G/	-no	.	.
.	.	.	.	.	.	4c/	.
!	!	!	!	!	!	!LO:TX:t=P:problem=kreska pseudotaktowa	!
.	.	.	.	.	.	4B-/	.
2C/	qui	.	.	.	.	1e-X\	Li-
(>[4C/	pe-	.	.	.	.	.	.
4C/])	.	.	.	.	.	.	.
=10-	=10-	=10-	=10-	=10-	=10-	=10-	=10-
!LO:TX:t=P:problem=kreska pseudotaktowa	!	!	!	!	!	!LO:TX:t=P:problem=kreska pseudotaktowa	!
1G\	-pen-	0r	.	2G/	qui	1d/	-gno
.	.	.	.	(>[4G/	pe-	.	.
.	.	.	.	4G/)]	.	.	.
2.c\	-dit	.	.	2.d\	-pen-	2.g\	in
!	!	!	!	!LO:TX:t=P:problem=kreska pseudotaktowa	!	!	!
4A\	.	.	.	4c/	.	4g\	li-
=11-	=11-	=11-	=11-	=11-	=11-	=11-	=11-
!	!	!	!	!	!	!LO:TX:t=P:problem=kreska pseudotaktowa	!
4G\	.	2.G/	Re-	4B-/	.	1d/	-gno
4F\	.	.	.	4A/	.	.	.
1G\	in	.	.	1B-/	.	.	.
.	.	4G/	-sur-	.	.	.	.
.	.	2d\	-re-	.	.	1r	.
!	!	!LO:TX:t=P:problem=kreska pseudotaktowa	!	!	!	!	!
4F/	.	2d\	-xit	4A/	dit	.	.
!LO:TX:t=P:problem=kreska pseudotaktowa	!	!	!	!LO:TX:t=P:problem=kreska pseudotaktowa	!	!	!
4Eny/	.	.	.	4G/	.	.	.
=12-	=12-	=12-	=12-	=12-	=12-	=12-	=12-
1D/	Li-	2f\	Chr(i-	2A/	in	2.d/	Re-
.	.	2f\	-st)us	2B-/	Lig-	.	.
!	!	!	!	!	!	!LO:TX:t=P:problem=kreska pseudotaktowa	!
.	.	.	.	.	.	4d/	-sur-
!LO:TX:t=P:problem=kreska pseudotaktowa	!	!	!	!LO:TX:t=P:problem=kreska pseudotaktowa	!	!	!
1C/	-gno	2.e\	D(o-	1c\	-no	2g\	-re-
.	.	.	.	.	.	2g\	-xit
!	!	!LO:TX:t=P:problem=kreska pseudotaktowa	!	!	!	!	!
.	.	4e\	-mi)-	.	.	.	.
=13-	=13-	=13-	=13-	=13-	=13-	=13-	=13-
*	*	*custos:f	*	*	*	*	*
!	!	!LO:TX:t=P:problem=kreska pseudotaktowa	!	!	!	!	!
0r	.	1d\	-nus	2.G/	Re-	2b-\	Chr(i-
*	*	*	*	*	*	*custos:a	*
!	!	!	!	!	!	!LO:TX:t=P:problem=kreska pseudotaktowa	!
.	.	.	.	.	.	2b-\	-st)us
.	.	.	.	4G/	-sur-	.	.
!	!	!LO:LB:g=original	!	!	!	!LO:LB:g=original	!
.	.	2r	.	2d\	-re-	2.a\	D(o-
!	!	!	!	!LO:TX:t=P:problem=kreska pseudotaktowa	!	!	!
.	.	2f\	de	2d\	-xit	.	.
.	.	.	.	.	.	4g\	-mi)-
=14-	=14-	=14-	=14-	=14-	=14-	=14-	=14-
!	!	!	!	!	!	!LO:TX:t=P:problem=kreska pseudotaktowa	!
2.D/	Re-	2.f\	Se-	2f\	Chr(i-	1a\	-nus
.	.	.	.	2f\	-st)us	.	.
!	!	!LO:TX:t=P:problem=kreska pseudotaktowa	!	!	!	!	!
4D/	-sur-	4e\	.	.	.	.	.
!	!	!	!	!LO:TX:t=P:problem=kreska pseudotaktowa	!	!	!
2G\	-re-	4d\	.	1g\	do-	2r	.
.	.	4c\	.	.	.	.	.
!LO:TX:t=P:problem=kreska pseudotaktowa	!	!	!	!	!	!LO:TX:t=P:problem=kreska pseudotaktowa	!
2G\	-xit	2.B-\	.	.	.	2d/	de
=15-	=15-	=15-	=15-	=15-	=15-	=15-	=15-
2B-\	Chr(i-	.	.	2f\	.	4d/	Se-
.	.	4A/	.	.	.	4eny/	.
2B-\	-st)us	1d\	.	4e\	.	4f\	.
*	*	*	*	*custos:e	*	*	*
!	!	!	!	!	!	!LO:TX:t=P:problem=kreska pseudotaktowa	!
.	.	.	.	4d\	.	4g\	.
!	!	!	!	!LO:LB:g=original	!	!	!
2.A\	D(o-	.	.	1e\	-mi-	1a\	-pul-
!	!	!LO:TX:t=P:problem=kreska pseudotaktowa	!	!	!	!	!
.	.	2c\	-pul-	.	.	.	.
4A\	-mi)-	.	.	.	.	.	.
=16-	=16-	=16-	=16-	=16-	=16-	=16-	=16-
*custos:G	*	*	*	*	*	*	*
!	!	!	!	!LO:TX:t=P:problem=kreska pseudotaktowa	!	!	!
2D/	-nus	2d,<\	-chro	1d\	-nus	2f\	-chro
!LO:LB:g=original	!	!	!	!	!	!LO:TX:t=P:problem=kreska pseudotaktowa	!
2G\	de	2B-\	qui	.	.	2d/	qui
2F/	Se-	2A/	pe-	2r	.	2d/	pe-
!LO:TX:t=P:problem=kreska pseudotaktowa	!	!LO:TX:t=P:problem=kreska pseudotaktowa	!	!	!	!	!
2G\	-pul-	2G/	-pen-	2b-\	qui	2d/	-pen-
=17-	=17-	=17-	=17-	=17-	=17-	=17-	=17-
2D/	-chro	2.d\	-dit	2a\	pe-	2f\	-dit
!	!	!	!	!LO:TX:t=P:problem=kreska pseudotaktowa	!	!LO:TX:t=P::problem=kreska pseudotaktowa&colon;między nutą a kropką	!
1G\	de	.	.	2g\	-pen-	2.B-/	in
.	.	4c\	.	.	.	.	.
.	.	2B-\	.	2.d\	-dit	.	.
.	.	.	.	.	.	4c/	.
2D/	Se-	2.A/	.	.	.	1d/	Lig-
.	.	.	.	4c\	.	.	.
=18-	=18-	=18-	=18-	=18-	=18-	=18-	=18-
1E-X/	-pul-	.	.	2B-/	.	.	.
.	.	4G/	.	.	.	.	.
!	!	!	!	!	!	!LO:TX:t=P:problem=kreska pseudotaktowa	!
.	.	1G/	in	4a\	in	2c/	.
!	!	!	!	!LO:TX:t=P:problem=kreska pseudotaktowa	!	!	!
.	.	.	.	4g\	.	.	.
!LO:TX:t=P:problem=kreska pseudotaktowa	!	!	!	!	!	!LO:TX:t=P:problem=kreska pseudotaktowa	!
1D/	-chro	.	.	1a\	Lig-	1d/	-no
!	!	!LO:TX:t=P:problem=kreska pseudotaktowa	!	!	!	!	!
.	.	2F/	lig-	.	.	.	.
=19-	=19-	=19-	=19-	=19-	=19-	=19-	=19-
!	!	!	!	!LO:TX:t=P:problem=kreska pseudotaktowa	!	!	!
2r	.	1G/	-no	1g\	no	2r	.
!LO:TX:t=P:problem=kreska pseudotaktowa	!	!	!	!	!	!LO:TX:t=P:problem=kreska pseudotaktowa	!
2G\	Ve-	.	.	.	.	2d/	Ve-
2G\	-nit	2r	.	1rg	.	2g\	-[nit]
*	*	*custos:d	*	*	*	*	*
!	!	!	!	!	!	!LO:LB:g=original	!
!	!	!LO:TX:t=P:problem=kreska pseudotaktowa	!	!	!	!LO:TX:t=P:problem=kreska pseudotaktowa	!
2G\	Ma-	2d\	Ve-	.	.	2g\	Ma-
=20-	=20-	=20-	=20-	=20-	=20-	=20-	=20-
!	!	!LO:LB:g=original	!	!	!	!	!
1B-\	-ri-	2d\	-nit	2re	.	1f\	-ri-
!	!	!	!	!LO:TX:t=P:problem=kreska pseudotaktowa	!	!	!
.	.	2d\	Ma-	2d\	Ve-	.	.
!LO:TX:t=P:problem=kreska pseudotaktowa	!	!	!	!	!	!	!
1B-\	-a	2f\	-ri-	2d\	-nit	2f\	-a
!	!	!LO:TX:t=P:problem=kreska pseudotaktowa	!	!	!	!LO:TX:t=P:problem=kreska pseudotaktowa	!
.	.	2d\	-a	2d\	Ma-	2g\	Sa-
=21-	=21-	=21-	=21-	=21-	=21-	=21-	=21-
2r	.	2c\	Sa-	2f\	-ri-	2a\	-lo-
!	!	!	!	!LO:TX:t=P:problem=kreska pseudotaktowa	!	!	!
2BB-/	Sa-	2B-\	-lo-	2d\	-a	1f\	-me
2F/	-lo-	2A/	-me	2c/	Sa-	.	.
!LO:SIC:v:l:s=me	!	!LO:TX:t=P:problem=kreska pseudotaktowa	!	!	!	!LO:TX:t=P:problem=kreska pseudotaktowa	!
*	*	*	*ij	*	*	*	*
2G\	-me	2d\	Ve-	2B-/	-lo-	2e/	Sa-
=22-	=22-	=22-	=22-	=22-	=22-	=22-	=22-
*	*	*	*	*custos:G	*	*	*
!LO:TX:t=P:problem=kreska pseudotaktowa	!	!	!	!LO:TX:t=P:problem=kreska pseudotaktowa	!	!	!
0D/	.	2d\	-nit	1A/	-me	4f\	.
.	.	.	.	.	.	4e\	.
.	.	2d\	Ma-	.	.	4f\	.
!	!	!	!	!	!	!LO:TX:t=P:problem=kreska pseudotaktowa	!
.	.	.	.	.	.	4g\	.
!	!	!LO:TX:t=P:problem=kreska pseudotaktowa	!	!LO:LB:g=original	!	!	!
.	.	1f\	-ri-	2r	.	1a\	-Lo-
!	!	!	!	!LO:TX:t=P:problem=kreska pseudotaktowa	!	!	!
.	.	.	.	2g\	Sa-	.	.
=23-	=23-	=23-	=23-	=23-	=23-	=23-	=23-
0r	.	2e\	-a	2c/	-lo-	4g\	.
.	.	.	.	.	.	4f\	.
!	!	!	!	!LO:TX:t=P:problem=kreska pseudotaktowa	!	!	!
.	.	1d\	Sa-	2d\	.	4e/	.
!	!	!	!	!	!	!LO:TX:t=P:problem=kreska pseudotaktowa	!
.	.	.	.	.	.	4d/	.
!	!	!	!	!LO:TX:t=P:problem=kreska pseudotaktowa	!	!	!
.	.	.	.	1A/	-me	1e\	.
.	.	2c\	-lo-	.	.	.	.
=24-	=24-	=24-	=24-	=24-	=24-	=24-	=24-
!	!	!LO:TX:t=P:problem=kreska pseudotaktowa	!	!	!	!LO:TX:t=P:problem=kreska pseudotaktowa	!
2r	.	1d\	-me	2rA	.	1d/	-me
*	*	*	*Xij	*	*	*	*
*custos:G	*	*	*	*	*	*	*
2D/	Cle-	.	.	2A/	Cle-	.	.
!LO:LB:g=original	!	!	!	!	!	!	!
2G\	-o-	2r	.	2B-/	-o-	2r	.
!	!	!	!	!LO:SIC:v:l:s=phae	!	!	!
!LO:TX:t=P:problem=kreska pseudotaktowa	!	!	!	!LO:TX:t=P:problem=kreska pseudotaktowa	!	!LO:TX:t=P:problem=kreska pseudotaktowa	!
2F/	-phae	2A/	Cle-	2c/	-phe	2f\	Cle-
=25-	=25-	=25-	=25-	=25-	=25-	=25-	=25-
2r	.	2B-\	-o-	2r	.	2g\	-op
!	!	!LO:SIC:v:l:s=phae	!	!	!	!	!
!	!	!LO:TX:t=P:problem=kreska pseudotaktowa	!	!LO:TX:t=P:problem=kreska pseudotaktowa	!	!LO:TX:t=P:problem=defekt źródła	!
*	*	*	*	*	*ij	*	*
2F/	et	2c\	-phe	2A/	Cle-	2ryy	.
!	!	!	!	!	!	!LO:PB:g=original	!
2G\	Ma-	2r	.	2B-/	-o-	2r	.
*	*	*custos:B	*	*	*	*	*
!	!	!	!	!LO:SIC:v:l:s=phae	!	!	!
!LO:TX:t=P:problem=kreska pseudotaktowa	!	!	!	!LO:TX:t=P:problem=kreska pseudotaktowa	!	!	!
2F/	-ri-	2A/	et	2c/	-phe	1f\	et
*	*	*	*	*	*Xij	*	*
=26-	=26-	=26-	=26-	=26-	=26-	=26-	=26-
!	!	!LO:LB:g=original	!	!	!	!	!
0B-\	-a	4B-\	Ma-	2r	.	.	.
.	.	4A\	.	.	.	.	.
!	!	!	!	!LO:TX:t=P:problem=kreska pseudotaktowa	!	!LO:TX:t=P:problem=kreska pseudotaktowa	!
.	.	4B-\	.	2d\	et	2f\	Ma-
!	!	!LO:TX:t=P:problem=kreska pseudotaktowa	!	!	!	!	!
.	.	4c\	.	.	.	.	.
.	.	2d\	ri-	2d\	Ma-	2B-/	-ri-
.	.	2d\	-a	2d\	-ri-	2f\	-a
=27-	=27-	=27-	=27-	=27-	=27-	=27-	=27-
2E-X/	Ma-	2c\	Ma-	4e-X\	-a	2g\	Ma-
.	.	.	.	4d\	.	.	.
!LO:TX:t=P:problem=kreska pseudotaktowa	!	!	!	!	!	!LO:TX:t=P:problem=kreska pseudotaktowa	!
2G\	-gda-	1B-\	-gda-	(4c/	Ma-	2e/	-gda-
!	!	!	!	!LO:TX:t=P:problem=kreska pseudotaktowa	!	!	!
.	.	.	.	4B-/)	.	.	.
1F\	-le-	.	.	2c/	-gda-	1f\	-le-
!	!	!LO:TX:t=P:problem=kreska pseudotaktowa	!	!	!	!	!
.	.	2A/	-le-	2c/	-le-	.	.
=28-	=28-	=28-	=28-	=28-	=28-	=28-	=28-
*	*	*	*	*custos:g	*	*	*
!LO:SIC:v:l:s=na	!	!	!	!	!	!	!
!LO:TX:t=P:problem=kreska pseudotaktowa	!	!LO:SIC:v:l:s=na	!	!LO:TX:t=P:problem=kreska pseudotaktowa	!	!	!
1BB-/	-nae	2B-,<\	-ne	1B-/	-na	2d/	-na
!	!	!	!	!	!	!LO:TX:t=P:problem=kreska pseudotaktowa	!
.	.	2d\	por-	.	.	2b-\	por-
!	!	!	!	!LO:LB:g=original	!	!	!
1r	.	2d\	-tan-	1g\	por-	2b-\	-tan-
!	!	!LO:TX:t=P:problem=kreska pseudotaktowa	!	!	!	!	!
.	.	2d\	-tes	.	.	2b-\	-tes
=29-	=29-	=29-	=29-	=29-	=29-	=29-	=29-
2r	.	1.c\	a-	2.a\	-tan-	1.a\	a-
!LO:TX:t=P:problem=kreska pseudotaktowa	!	!	!	!	!	!	!
2F/	por-	.	.	.	.	.	.
!	!	!	!	!LO:TX:t=P:problem=kreska pseudotaktowa	!	!	!
.	.	.	.	4g\	-tes	.	.
2F/	-tan-	.	.	2g\	a-	.	.
!LO:TX:t=P:problem=kreska pseudotaktowa	!	!LO:TX:t=P:problem=kreska pseudotaktowa	!	!LO:TX:t=P:problem=kreska pseudotaktowa	!	!LO:TX:t=P:problem=kreska pseudotaktowa	!
2G\	-tes	2B-/	-ro-	2a\	-ro-	2g\	-ro-
=30-	=30-	=30-	=30-	=30-	=30-	=30-	=30-
2A\	a-	2A/	-ma-	2c/	-ma-	2f\	-ma-
2B-\	-ro-	2G/	-ta	1d\	.	4e/	.
.	.	.	.	.	.	4d/	.
!	!	!LO:TX:t=P:problem=kreska pseudotaktowa	!	!	!	!LO:TX:t=P:problem=kreska pseudotaktowa	!
2.A\	-ma-	1A\	.	.	.	1e\	.
.	.	.	.	2c/	.	.	.
!LO:TX:t=P:4\left:problem	!	!	!	!	!	!	!
4A\	.	.	.	.	.	.	.
=31-	=31-	=31-	=31-	=31-	=31-	=31-	=31-
*custos:G	*	*	*	*	*	*	*
!	!	!	!	!LO:TX:t=P:problem=kreska pseudotaktowa	!	!	!
2D/	-ta	2r	.	1d\	-ta	2f,<\	-ta
!LO:LB:g=original	!	!	!	!	!	!	!
!LO:TX:t=P:problem=kreska pseudotaktowa	!	!	!	!	!	!LO:TX:t=P:problem=prawdopodobnie forma "ungere" z B jest właściwa	!
2G\	Vn-	2B-\	Vn-	.	.	2d/	Vn-
2F/	-ge-	2A/	-ctu-	2r	.	2d/	-ctu-
*	*	*	*	*	*	*custos:e	*
!	!	!LO:TX:t=P:problem=kreska pseudotaktowa	!	!	!	!LO:TX:t=P:problem=kreska pseudotaktowa	!
2G,<\	-re	2G/	-rae	2B-/	Vn-	2d/	-rae
=32-	=32-	=32-	=32-	=32-	=32-	=32-	=32-
!	!	!	!	!	!	!LO:LB:g=original	!
1.C/	Chr(i-	2.c\	Chri-	2A/	-ctu-	1.e\	Chr(i-
!	!	!	!	!LO:TX:t=P:problem=kreska pseudotaktowa	!	!	!
.	.	.	.	2G/	-rae	.	.
*	*	*custos:A	*	*	*	*	*
.	.	4B-\	.	.	.	.	.
!	!	!LO:LB:g=original	!	!	!	!	!
.	.	4A/	-stum	1c\	Chr(i-	.	.
.	.	4G/	.	.	.	.	.
!LO:TX:t=P:problem=kreska pseudotaktowa	!	!	!	!	!	!LO:TX:t=P:problem=kreska pseudotaktowa	!
2F/	-st)um	1A\	D(o-	.	.	2f\	-st)um
=33-	=33-	=33-	=33-	=33-	=33-	=33-	=33-
2G\	D(o-	.	.	2.B-/	-st)um	2d/	D(o-
2E-X/	-mi)-	1G/	.	.	.	2c/	-mi)-
.	.	.	.	8A/L	.	.	.
!	!	!	!	!LO:TX:t=P:problem=kreska pseudotaktowa	!	!	!
.	.	.	.	8G/J	.	.	.
!	!	!	!	!	!	!LO:TX:t=P:problem=kreska pseudotaktowa	!
2.D/	.	.	.	2A/	D(o-	1d/	.
!	!	!LO:TX:t=P:problem=kreska pseudotaktowa	!	!	!	!	!
.	.	2F/	-mi)-	2A/	-mi)-	.	.
!LO:TX:t=P:problem=4/middle	!	!	!	!	!	!	!
4D/	-num	.	.	.	.	.	.
=34-	=34-	=34-	=34-	=34-	=34-	=34-	=34-
!LO:TX:t=P:problem=kreska pseudotaktowa	!	!	!	!	!	!	!
1G\	.	2G/	-num	2G,</	-num	2d,</	-num
*	*	*	*	*custos:g	*	*	*
!	!	!	!	!LO:TX:t=P:problem=kreska pseudotaktowa	!	!	!
.	.	2d\	por-	2g\	por-	2b-\	por-
!	!	!	!	!LO:LB:g=original	!	!	!
1r	.	2d\	-tan-	2g\	-tan-	2b-\	-tan-
!	!	!LO:TX:t=P:problem=kreska pseudotaktowa	!	!LO:TX:t=P:problem=kreska pseudotaktowa	!	!LO:TX:t=P:problem=kreska pseudotaktowa	!
.	.	2d\	-tes	2g\	-tes	2b-\	-tes
=35-	=35-	=35-	=35-	=35-	=35-	=35-	=35-
2r	.	1.c\	a-	2.a\	a-	1.a\	a-
!LO:TX:t=P:problem=kreska pseudotaktowa	!	!	!	!	!	!	!
2F/	por-	.	.	.	.	.	.
.	.	.	.	4g\	-ro-	.	.
2F/	-tan-	.	.	2a\	-ma-	.	.
!	!	!	!	!LO:TX:t=P:problem=kreska pseudotaktowa	!	!LO:TX:t=P:problem=kreska pseudotaktowa	!
2G\	-tes	2B-\	-ro-	2b-\	-ta	2g\	-ro-
=36-	=36-	=36-	=36-	=36-	=36-	=36-	=36-
2A\	a-	2A/	-ma-	2c/	a-	2f\	-ma-
!	!	!LO:TX:t=P:problem=kreska pseudotaktowa	!	!	!	!	!
2B-\	-ro-	2G/	-ta	1d\	-ro-	4e/	.
.	.	.	.	.	.	4d/	.
!LO:TX:t=P:2\left:problem	!	!	!	!	!	!LO:TX:t=P:problem=kreska pseudotaktowa	!
2.A\	-ma-	1A\	.	.	.	1e\	.
.	.	.	.	2c/	-ma-	.	.
!LO:TX:t=P:4\left:problem	!	!	!	!	!	!	!
!LO:TX:t=P:problem=kreska pseudotaktowa	!	!	!	!	!	!	!
4A\	-ta	.	.	.	.	.	.
=37-	=37-	=37-	=37-	=37-	=37-	=37-	=37-
!	!	!	!	!LO:TX:t=P:problem=kreska pseudotaktowa	!	!	!
2D,</	.	2r	.	1d\	-ta	2f\	-ta
!	!	!LO:TX:t=P:problem=kreska pseudotaktowa	!	!	!	!	!
2G\	Vn-	2B-\	Vn-	.	.	2d/	Vn-
2F/	-ge-	2A/	-ctu-	2r	.	2d/	-ctu-
!	!	!	!	!	!	!LO:TX:t=P:problem=kreska pseudotaktowa	!
2G\	-re	2G/	-rae	2b-\	Vn-	2d/	-rae
=38-	=38-	=38-	=38-	=38-	=38-	=38-	=38-
1.C/	Chr(i-	2.c\	Ch(ri-	2g\	-ctu-	1.e\	Chr(i-
!	!	!	!	!LO:TX:t=P:problem=kreska pseudotaktowa	!	!	!
.	.	.	.	2f\	-rae	.	.
.	.	4B-\	.	.	.	.	.
.	.	4A/	-s)tum	1c\	Ch(i-	.	.
.	.	4G/	.	.	.	.	.
2F/	-st)um	1A\	.	.	.	2f\	-st)u(m)
=39-	=39-	=39-	=39-	=39-	=39-	=39-	=39-
2G\	D(o-	.	.	2B-/	-st)um	2d/	D(o-
2E-X/	.	1G/	D(o-	4a\	D(o-	2c/	.
!	!	!	!	!LO:TX:t=P:problem=kreska pseudotaktowa	!	!	!
.	.	.	.	4g\	.	.	.
1D/	-mi)-	.	.	2a\	.	1d/	-mi)-
.	.	2F/	-mi)-	2a\	-mi)-	.	.
=40-	=40-	=40-	=40-	=40-	=40-	=40-	=40-
0G\;;	-num	0G/;;	-num	0g\;<	-num	0d/;;	-num
==	==	==	==	==	==	==	==
*-	*-	*-	*-	*-	*-	*-	*-
!!!RDF**kern: > = above
!!!RDF**kern: < = below
!!!system-decoration: [(s1,s2,s3,s4)]
!!!EED: Andrzej Borzym
!!!EEV: 2021-03-27
!!!ENC: Kamil Watkowski
!!!END: 2021-03-23
